licenses/cc/CC-BY-NC-4.0.svg

<svg width="150" height="21" viewBox="0 0 150 21" fill="none" xmlns="http://www.w3.org/2000/svg">
<g clip-path="url(#clip0_2011_35)">
<rect width="150" height="21" rx="5" fill="black"/>
<g filter="url(#filter0_d_2011_35)">
<g clip-path="url(#clip1_2011_35)">
<path d="M12.9852 2.5C15.223 2.5 17.1282 3.28125 18.6995 4.843C19.4515 5.59525 20.0232 6.455 20.4137 7.4215C20.804 8.38825 20.9997 9.41425 20.9997 10.5C20.9997 11.5952 20.8065 12.6215 20.4212 13.5782C20.0355 14.5352 19.4662 15.3807 18.7142 16.114C17.9335 16.8852 17.0477 17.476 16.057 17.8855C15.0667 18.295 14.0427 18.4997 12.9857 18.4997C11.9287 18.4997 10.9167 18.2977 9.95 17.8925C8.9835 17.488 8.11675 16.9022 7.35 16.1357C6.58325 15.3692 6 14.5047 5.6 13.5427C5.2 12.5807 5 11.5667 5 10.5C5 9.44275 5.20225 8.42625 5.607 7.45C6.01175 6.47375 6.6 5.6 7.37125 4.8285C8.895 3.2765 10.7663 2.5 12.9852 2.5ZM13.0142 3.943C11.1857 3.943 9.6475 4.58125 8.39975 5.85725C7.771 6.4955 7.28775 7.212 6.94975 8.00725C6.61125 8.8025 6.4425 9.6335 6.4425 10.5002C6.4425 11.3575 6.61125 12.1837 6.94975 12.9785C7.288 13.7742 7.771 14.4837 8.39975 15.1075C9.02825 15.7315 9.7375 16.2072 10.5285 16.5362C11.3187 16.8647 12.1475 17.029 13.0142 17.029C13.8712 17.029 14.7017 16.8627 15.5075 16.5292C16.3122 16.1955 17.0377 15.715 17.6857 15.0865C18.9332 13.8675 19.5567 12.339 19.5567 10.5005C19.5567 9.61475 19.3947 8.77675 19.071 7.98625C18.7477 7.19575 18.276 6.49125 17.6575 5.87175C16.371 4.586 14.8237 3.943 13.0142 3.943ZM12.914 9.17175L11.8422 9.729C11.7277 9.49125 11.5875 9.32425 11.421 9.229C11.2542 9.134 11.0995 9.08625 10.9565 9.08625C10.2425 9.08625 9.885 9.5575 9.885 10.5005C9.885 10.929 9.9755 11.2715 10.1562 11.5287C10.3372 11.786 10.604 11.9147 10.9565 11.9147C11.4232 11.9147 11.7517 11.686 11.9425 11.229L12.928 11.729C12.7185 12.1197 12.428 12.4267 12.0565 12.6505C11.6855 12.8745 11.2757 12.9862 10.828 12.9862C10.1137 12.9862 9.53725 12.7675 9.09925 12.329C8.66125 11.891 8.44225 11.2815 8.44225 10.5007C8.44225 9.73875 8.66375 9.13425 9.1065 8.6865C9.54925 8.239 10.1087 8.015 10.7852 8.015C11.776 8.0145 12.4852 8.40025 12.914 9.17175ZM17.5282 9.17175L16.471 9.729C16.3567 9.49125 16.216 9.32425 16.0495 9.229C15.8825 9.134 15.7227 9.08625 15.571 9.08625C14.8567 9.08625 14.4992 9.5575 14.4992 10.5005C14.4992 10.929 14.59 11.2715 14.7707 11.5287C14.9515 11.786 15.218 11.9147 15.571 11.9147C16.0372 11.9147 16.366 11.686 16.5562 11.229L17.5562 11.729C17.3375 12.1197 17.042 12.4267 16.671 12.6505C16.2995 12.8745 15.8947 12.9862 15.4567 12.9862C14.7327 12.9862 14.1545 12.7675 13.7215 12.329C13.2875 11.891 13.071 11.2815 13.071 10.5007C13.071 9.73875 13.2922 9.13425 13.7355 8.6865C14.178 8.239 14.7375 8.015 15.4137 8.015C16.4042 8.0145 17.1095 8.40025 17.5282 9.17175Z" fill="white"/>
</g>
</g>
<g filter="url(#filter1_d_2011_35)">
<path d="M24.0387 15.5V6.04545H25.4652V14.272H29.7493V15.5H24.0387ZM31.2658 15.5V8.40909H32.6461V15.5H31.2658ZM31.9629 7.31498C31.7228 7.31498 31.5166 7.23497 31.3443 7.07493C31.175 6.91181 31.0904 6.71792 31.0904 6.49325C31.0904 6.26551 31.175 6.07161 31.3443 5.91158C31.5166 5.74846 31.7228 5.6669 31.9629 5.6669C32.2029 5.6669 32.4076 5.74846 32.5769 5.91158C32.7492 6.07161 32.8354 6.26551 32.8354 6.49325C32.8354 6.71792 32.7492 6.91181 32.5769 7.07493C32.4076 7.23497 32.2029 7.31498 31.9629 7.31498ZM37.49 15.6431C36.8036 15.6431 36.2127 15.4877 35.7172 15.1768C35.2248 14.8629 34.8463 14.4305 34.5816 13.8796C34.3169 13.3287 34.1846 12.6978 34.1846 11.9869C34.1846 11.2667 34.32 10.6312 34.5908 10.0803C34.8617 9.52628 35.2433 9.09387 35.7357 8.78302C36.2281 8.47218 36.8083 8.31676 37.4761 8.31676C38.0147 8.31676 38.4948 8.41678 38.9165 8.61683C39.3381 8.8138 39.6782 9.09079 39.9367 9.4478C40.1983 9.8048 40.3537 10.2218 40.403 10.6989H39.0596C38.9857 10.3665 38.8164 10.0803 38.5518 9.8402C38.2902 9.60014 37.9393 9.48011 37.4992 9.48011C37.1145 9.48011 36.7775 9.58167 36.4882 9.7848C36.202 9.98485 35.9788 10.2711 35.8188 10.6435C35.6588 11.0128 35.5787 11.4498 35.5787 11.9545C35.5787 12.4716 35.6572 12.9178 35.8142 13.2933C35.9711 13.6688 36.1927 13.9596 36.479 14.1658C36.7683 14.372 37.1083 14.4751 37.4992 14.4751C37.7608 14.4751 37.9978 14.4274 38.2101 14.332C38.4256 14.2335 38.6056 14.0935 38.7503 13.9119C38.898 13.7303 39.0011 13.5118 39.0596 13.2564H40.403C40.3537 13.715 40.2045 14.1243 39.9552 14.4844C39.7059 14.8445 39.3719 15.1276 38.9534 15.3338C38.5379 15.54 38.0501 15.6431 37.49 15.6431ZM44.9352 15.6431C44.2366 15.6431 43.6349 15.4938 43.1301 15.1953C42.6285 14.8937 42.2407 14.4705 41.9668 13.9258C41.696 13.378 41.5605 12.7363 41.5605 12.0007C41.5605 11.2744 41.696 10.6342 41.9668 10.0803C42.2407 9.52628 42.6223 9.09387 43.1117 8.78302C43.6041 8.47218 44.1796 8.31676 44.8382 8.31676C45.2383 8.31676 45.6261 8.38293 46.0016 8.51527C46.3771 8.64761 46.7141 8.85535 47.0126 9.13849C47.3111 9.42164 47.5466 9.78942 47.7189 10.2418C47.8913 10.6912 47.9774 11.2375 47.9774 11.8807V12.37H42.3407V11.3359H46.6248C46.6248 10.9728 46.551 10.6512 46.4032 10.3711C46.2555 10.0879 46.0478 9.86482 45.78 9.7017C45.5153 9.53859 45.2045 9.45703 44.8475 9.45703C44.4597 9.45703 44.1211 9.55244 43.8318 9.74325C43.5456 9.93099 43.324 10.1772 43.1671 10.4819C43.0132 10.7835 42.9363 11.1113 42.9363 11.4652V12.2731C42.9363 12.747 43.0193 13.1502 43.1855 13.4826C43.3548 13.815 43.5903 14.0689 43.8919 14.2443C44.1935 14.4167 44.5459 14.5028 44.949 14.5028C45.2106 14.5028 45.4492 14.4659 45.6646 14.392C45.88 14.3151 46.0662 14.2012 46.2232 14.0504C46.3801 13.8996 46.5002 13.7134 46.5833 13.4918L47.8897 13.7273C47.7851 14.112 47.5974 14.449 47.3265 14.7383C47.0588 15.0245 46.7218 15.2476 46.3155 15.4077C45.9123 15.5646 45.4522 15.6431 44.9352 15.6431ZM50.8893 11.2898V15.5H49.509V8.40909H50.8339V9.56321H50.9216C51.0847 9.18773 51.3402 8.88612 51.6879 8.65838C52.0388 8.43063 52.4804 8.31676 53.0129 8.31676C53.4961 8.31676 53.9192 8.41832 54.2824 8.62145C54.6456 8.82149 54.9272 9.12003 55.1272 9.51704C55.3273 9.91406 55.4273 10.4049 55.4273 10.9897V15.5H54.047V11.1559C54.047 10.6419 53.9131 10.2403 53.6453 9.95099C53.3776 9.65862 53.0098 9.51243 52.542 9.51243C52.2219 9.51243 51.9372 9.58167 51.6879 9.72017C51.4417 9.85866 51.2463 10.0618 51.1016 10.3295C50.9601 10.5942 50.8893 10.9143 50.8893 11.2898ZM62.5921 10.1403L61.341 10.3619C61.2887 10.2018 61.2056 10.0495 61.0917 9.90483C60.9809 9.76018 60.8301 9.64169 60.6393 9.54936C60.4485 9.45703 60.2099 9.41086 59.9237 9.41086C59.5329 9.41086 59.2066 9.49858 58.945 9.674C58.6834 9.84635 58.5526 10.0695 58.5526 10.3434C58.5526 10.5804 58.6403 10.7712 58.8158 10.9158C58.9912 11.0605 59.2743 11.179 59.6652 11.2713L60.7916 11.5298C61.4441 11.6806 61.9304 11.913 62.2504 12.2269C62.5705 12.5408 62.7305 12.9486 62.7305 13.4503C62.7305 13.875 62.6074 14.2535 62.3612 14.5859C62.1181 14.9152 61.778 15.1738 61.341 15.3615C60.907 15.5492 60.4038 15.6431 59.8314 15.6431C59.0374 15.6431 58.3895 15.4738 57.8879 15.1353C57.3862 14.7937 57.0784 14.3089 56.9646 13.6811L58.2987 13.478C58.3818 13.8258 58.5526 14.0889 58.8112 14.2674C59.0697 14.4428 59.4067 14.5305 59.8222 14.5305C60.2746 14.5305 60.6362 14.4367 60.907 14.2489C61.1779 14.0581 61.3133 13.8258 61.3133 13.5518C61.3133 13.3303 61.2302 13.1441 61.064 12.9932C60.9009 12.8424 60.6501 12.7286 60.3115 12.6516L59.1112 12.3885C58.4495 12.2377 57.9602 11.9976 57.6432 11.6683C57.3293 11.339 57.1723 10.922 57.1723 10.4173C57.1723 9.9987 57.2893 9.63245 57.5232 9.31853C57.7571 9.00461 58.0802 8.75994 58.4926 8.58451C58.905 8.40601 59.3774 8.31676 59.9099 8.31676C60.6762 8.31676 61.2794 8.48295 61.7195 8.81534C62.1596 9.14465 62.4505 9.58629 62.5921 10.1403ZM67.3043 15.6431C66.6057 15.6431 66.004 15.4938 65.4993 15.1953C64.9976 14.8937 64.6098 14.4705 64.3359 13.9258C64.0651 13.378 63.9297 12.7363 63.9297 12.0007C63.9297 11.2744 64.0651 10.6342 64.3359 10.0803C64.6098 9.52628 64.9915 9.09387 65.4808 8.78302C65.9732 8.47218 66.5488 8.31676 67.2074 8.31676C67.6075 8.31676 67.9953 8.38293 68.3707 8.51527C68.7462 8.64761 69.0832 8.85535 69.3817 9.13849C69.6803 9.42164 69.9157 9.78942 70.0881 10.2418C70.2604 10.6912 70.3466 11.2375 70.3466 11.8807V12.37H64.7099V11.3359H68.9939C68.9939 10.9728 68.9201 10.6512 68.7724 10.3711C68.6246 10.0879 68.4169 9.86482 68.1491 9.7017C67.8845 9.53859 67.5736 9.45703 67.2166 9.45703C66.8288 9.45703 66.4903 9.55244 66.201 9.74325C65.9148 9.93099 65.6932 10.1772 65.5362 10.4819C65.3823 10.7835 65.3054 11.1113 65.3054 11.4652V12.2731C65.3054 12.747 65.3885 13.1502 65.5547 13.4826C65.7239 13.815 65.9594 14.0689 66.261 14.2443C66.5626 14.4167 66.915 14.5028 67.3182 14.5028C67.5798 14.5028 67.8183 14.4659 68.0337 14.392C68.2492 14.3151 68.4354 14.2012 68.5923 14.0504C68.7493 13.8996 68.8693 13.7134 68.9524 13.4918L70.2589 13.7273C70.1542 14.112 69.9665 14.449 69.6957 14.7383C69.4279 15.0245 69.0909 15.2476 68.6846 15.4077C68.2815 15.5646 67.8214 15.6431 67.3043 15.6431Z" fill="#E8E8E8"/>
<path d="M73.7155 15.5V6.04545H77.658C78.3659 6.04545 78.9583 6.14548 79.4354 6.34552C79.9155 6.54557 80.2756 6.82564 80.5156 7.18572C80.7587 7.54581 80.8803 7.96283 80.8803 8.43679C80.8803 8.79687 80.8049 9.11849 80.6541 9.40163C80.5033 9.6817 80.2956 9.91406 80.0309 10.0987C79.7662 10.2834 79.46 10.4126 79.1122 10.4865V10.5788C79.4938 10.5973 79.8462 10.7004 80.1694 10.8881C80.4956 11.0759 80.7572 11.3375 80.9542 11.6729C81.1511 12.0053 81.2496 12.3993 81.2496 12.8548C81.2496 13.3626 81.1204 13.8165 80.8618 14.2166C80.6033 14.6136 80.2294 14.9276 79.74 15.1584C79.2507 15.3861 78.6567 15.5 77.9581 15.5H73.7155ZM76.0007 13.658H77.4133C77.9088 13.658 78.2735 13.5642 78.5074 13.3764C78.7444 13.1887 78.8629 12.9271 78.8629 12.5916C78.8629 12.3485 78.806 12.1392 78.6921 11.9638C78.5782 11.7853 78.4167 11.6483 78.2074 11.5529C77.9981 11.4544 77.7473 11.4052 77.4549 11.4052H76.0007V13.658ZM76.0007 9.93253H77.2656C77.5149 9.93253 77.7365 9.89098 77.9304 9.80788C78.1243 9.72478 78.2751 9.60476 78.3828 9.4478C78.4936 9.29084 78.549 9.10156 78.549 8.87997C78.549 8.56297 78.4367 8.31368 78.212 8.1321C77.9873 7.95052 77.6842 7.85973 77.3025 7.85973H76.0007V9.93253ZM81.8775 6.04545H84.4304L86.4293 10.0018H86.5124L88.5113 6.04545H91.0643L87.6065 12.3423V15.5H85.3352V12.3423L81.8775 6.04545ZM96.357 9.90483V11.6406H91.9806V9.90483H96.357ZM105.997 6.04545V15.5H104.058L100.296 10.0433H100.236V15.5H97.9509V6.04545H99.9175L103.638 11.4929H103.717V6.04545H105.997ZM116.016 9.47088H113.708C113.677 9.2339 113.614 9.02 113.519 8.82919C113.423 8.63837 113.297 8.47526 113.14 8.33984C112.983 8.20443 112.797 8.10132 112.582 8.03054C112.369 7.95667 112.134 7.91974 111.875 7.91974C111.417 7.91974 111.021 8.03208 110.689 8.25675C110.36 8.48141 110.106 8.80611 109.927 9.23082C109.752 9.65554 109.664 10.1695 109.664 10.7727C109.664 11.4006 109.753 11.9268 109.932 12.3516C110.113 12.7732 110.367 13.0917 110.694 13.3072C111.023 13.5195 111.412 13.6257 111.861 13.6257C112.114 13.6257 112.343 13.5934 112.549 13.5288C112.759 13.4641 112.942 13.3703 113.099 13.2472C113.259 13.121 113.39 12.9686 113.491 12.7901C113.596 12.6085 113.668 12.4039 113.708 12.1761L116.016 12.19C115.976 12.6085 115.855 13.0209 115.652 13.4272C115.452 13.8334 115.176 14.2043 114.825 14.5398C114.474 14.8722 114.047 15.1368 113.542 15.3338C113.04 15.5308 112.465 15.6293 111.815 15.6293C110.96 15.6293 110.193 15.4415 109.516 15.066C108.842 14.6875 108.31 14.1366 107.919 13.4133C107.528 12.6901 107.333 11.8099 107.333 10.7727C107.333 9.73248 107.531 8.85073 107.928 8.12748C108.325 7.40424 108.862 6.85488 109.539 6.4794C110.216 6.10393 110.975 5.91619 111.815 5.91619C112.388 5.91619 112.917 5.99621 113.403 6.15625C113.89 6.31321 114.317 6.54403 114.687 6.84872C115.056 7.15033 115.356 7.52119 115.587 7.96129C115.818 8.4014 115.961 8.90459 116.016 9.47088ZM121.862 9.90483V11.6406H117.486V9.90483H121.862ZM123.322 13.9304V12.1484L127.195 6.04545H128.779V8.46449H127.86L125.593 12.0561V12.13H131.202V13.9304H123.322ZM127.888 15.5V13.3857L127.934 12.6055V6.04545H130.071V15.5H127.888ZM133.599 15.6339C133.267 15.6339 132.982 15.5169 132.745 15.283C132.511 15.0491 132.396 14.766 132.399 14.4336C132.396 14.1074 132.511 13.8288 132.745 13.598C132.982 13.3641 133.267 13.2472 133.599 13.2472C133.913 13.2472 134.19 13.3641 134.43 13.598C134.673 13.8288 134.797 14.1074 134.8 14.4336C134.797 14.6552 134.738 14.8568 134.624 15.0383C134.513 15.2199 134.367 15.3646 134.186 15.4723C134.007 15.58 133.812 15.6339 133.599 15.6339ZM139.776 15.7308C138.951 15.7308 138.24 15.5354 137.643 15.1445C137.046 14.7506 136.586 14.1858 136.263 13.4503C135.94 12.7116 135.78 11.8237 135.783 10.7866C135.786 9.74941 135.948 8.8692 136.268 8.14595C136.591 7.41962 137.049 6.86719 137.643 6.48864C138.24 6.10701 138.951 5.91619 139.776 5.91619C140.601 5.91619 141.312 6.10701 141.909 6.48864C142.509 6.86719 142.971 7.41962 143.294 8.14595C143.617 8.87228 143.777 9.75248 143.774 10.7866C143.774 11.8268 143.612 12.7163 143.289 13.4549C142.966 14.1935 142.506 14.7583 141.909 15.1491C141.315 15.5369 140.604 15.7308 139.776 15.7308ZM139.776 13.8611C140.269 13.8611 140.667 13.6103 140.972 13.1087C141.277 12.6039 141.427 11.8299 141.424 10.7866C141.424 10.1033 141.355 9.54013 141.216 9.09694C141.078 8.65068 140.886 8.3183 140.639 8.09978C140.393 7.88127 140.105 7.77202 139.776 7.77202C139.287 7.77202 138.891 8.01977 138.59 8.51527C138.288 9.00769 138.136 9.76479 138.133 10.7866C138.13 11.479 138.196 12.053 138.331 12.5085C138.47 12.964 138.664 13.3041 138.913 13.5288C139.162 13.7504 139.45 13.8611 139.776 13.8611Z" fill="white"/>
</g>
</g>
<rect x="0.6" y="0.6" width="148.8" height="19.8" rx="4.4" stroke="url(#paint0_linear_2011_35)" stroke-opacity="0.88" stroke-width="1.2"/>
<defs>
<filter id="filter0_d_2011_35" x="-0.60028" y="-3.10028" width="27.2006" height="27.2006" filterUnits="userSpaceOnUse" color-interpolation-filters="sRGB">
<feFlood flood-opacity="0" result="BackgroundImageFix"/>
<feColorMatrix in="SourceAlpha" type="matrix" values="0 0 0 0 0 0 0 0 0 0 0 0 0 0 0 0 0 0 127 0" result="hardAlpha"/>
<feOffset/>
<feGaussianBlur stdDeviation="2.80014"/>
<feComposite in2="hardAlpha" operator="out"/>
<feColorMatrix type="matrix" values="0 0 0 0 0 0 0 0 0 0 0 0 0 0 0 0 0 0 0.25 0"/>
<feBlend mode="normal" in2="BackgroundImageFix" result="effect1_dropShadow_2011_35"/>
<feBlend mode="normal" in="SourceGraphic" in2="effect1_dropShadow_2011_35" result="shape"/>
</filter>
<filter id="filter1_d_2011_35" x="17.2857" y="-3.21429" width="133.429" height="27.4286" filterUnits="userSpaceOnUse" color-interpolation-filters="sRGB">
<feFlood flood-opacity="0" result="BackgroundImageFix"/>
<feColorMatrix in="SourceAlpha" type="matrix" values="0 0 0 0 0 0 0 0 0 0 0 0 0 0 0 0 0 0 127 0" result="hardAlpha"/>
<feOffset/>
<feGaussianBlur stdDeviation="2.85714"/>
<feComposite in2="hardAlpha" operator="out"/>
<feColorMatrix type="matrix" values="0 0 0 0 0 0 0 0 0 0 0 0 0 0 0 0 0 0 0.25 0"/>
<feBlend mode="normal" in2="BackgroundImageFix" result="effect1_dropShadow_2011_35"/>
<feBlend mode="normal" in="SourceGraphic" in2="effect1_dropShadow_2011_35" result="shape"/>
</filter>
<linearGradient id="paint0_linear_2011_35" x1="0" y1="10.5" x2="150" y2="10.5" gradientUnits="userSpaceOnUse">
<stop stop-color="#A5B2AC"/>
<stop offset="1" stop-color="#ECF0ED"/>
</linearGradient>
<clipPath id="clip0_2011_35">
<rect width="150" height="21" rx="5" fill="white"/>
</clipPath>
<clipPath id="clip1_2011_35">
<rect width="16" height="16" fill="white" transform="translate(5 2.5)"/>
</clipPath>
</defs>
</svg>

<svg xmlns="http://www.w3.org/2000/svg" width="150" height="21" fill="none"><g clip-path="url(#a)"><rect width="150" height="21" fill="#000" rx="5"/><g filter="url(#b)"><g clip-path="url(#c)"><path fill="#fff" d="M12.99 2.5a7.8 7.8 0 0 1 5.71 2.34 7.7 7.7 0 0 1 1.71 2.58 8.27 8.27 0 0 1 .01 6.16 7.2 7.2 0 0 1-1.7 2.53 8.22 8.22 0 0 1-5.73 2.39 7.78 7.78 0 0 1-5.64-2.36A7.97 7.97 0 0 1 5 10.5a7.89 7.89 0 0 1 2.37-5.67A7.56 7.56 0 0 1 13 2.5ZM13 3.94a6.2 6.2 0 0 0-4.6 1.92A6.88 6.88 0 0 0 6.95 8a6.3 6.3 0 0 0 0 4.97 6.63 6.63 0 0 0 8.56 3.55 6.9 6.9 0 0 0 2.18-1.44 6.15 6.15 0 0 0 1.87-4.59 6.57 6.57 0 0 0-1.9-4.63A6.33 6.33 0 0 0 13 3.94Zm-.1 5.23-1.07.56a1.1 1.1 0 0 0-.42-.5.95.95 0 0 0-.46-.14c-.72 0-1.08.47-1.08 1.41 0 .43.1.77.28 1.03.18.26.44.38.8.38.46 0 .8-.22.98-.68l.99.5a2.35 2.35 0 0 1-2.1 1.26c-.72 0-1.3-.22-1.73-.66a2.47 2.47 0 0 1-.66-1.83c0-.76.22-1.37.67-1.81.44-.45 1-.67 1.68-.67.99 0 1.7.38 2.12 1.15Zm4.62 0-1.06.56a1.1 1.1 0 0 0-.42-.5.97.97 0 0 0-.48-.14c-.71 0-1.07.47-1.07 1.41 0 .43.09.77.27 1.03.18.26.45.38.8.38.47 0 .8-.22.99-.68l1 .5c-.22.39-.52.7-.89.92a2.3 2.3 0 0 1-1.21.34c-.73 0-1.3-.22-1.74-.66a2.48 2.48 0 0 1-.65-1.83c0-.76.22-1.37.67-1.81.44-.45 1-.67 1.67-.67 1 0 1.7.38 2.12 1.15Z"/></g></g><g filter="url(#d)"><path fill="#E8E8E8" d="M24.04 15.5V6.05h1.43v8.22h4.28v1.23h-5.71Zm7.23 0V8.4h1.38v7.1h-1.38Zm.7-8.19a.88.88 0 0 1-.63-.24.78.78 0 0 1-.25-.58c0-.22.09-.42.25-.58a.87.87 0 0 1 .62-.24c.24 0 .45.08.62.24.17.16.26.36.26.58a.86.86 0 0 1-.87.82Zm5.52 8.33c-.69 0-1.28-.15-1.77-.46-.5-.32-.87-.75-1.14-1.3a4.32 4.32 0 0 1-.4-1.9c0-.71.14-1.35.41-1.9a3.1 3.1 0 0 1 1.15-1.3 3.2 3.2 0 0 1 1.74-.46c.53 0 1.01.1 1.44.3a2.51 2.51 0 0 1 1.49 2.08h-1.35a1.61 1.61 0 0 0-.5-.86 1.5 1.5 0 0 0-1.06-.36c-.39 0-.72.1-1.01.3a2 2 0 0 0-.67.86 3.3 3.3 0 0 0-.24 1.31c0 .52.08.97.23 1.34.16.38.38.67.67.88.29.2.63.3 1.02.3.26 0 .5-.04.71-.14.22-.1.4-.24.54-.42.15-.18.25-.4.31-.65h1.34a2.58 2.58 0 0 1-1.45 2.08c-.41.2-.9.3-1.46.3Zm7.45 0c-.7 0-1.3-.15-1.81-.44-.5-.3-.89-.73-1.16-1.27a4.3 4.3 0 0 1-.41-1.93c0-.73.14-1.37.4-1.92.28-.55.66-.99 1.15-1.3A3.47 3.47 0 0 1 46 8.51a2.82 2.82 0 0 1 1.72 1.73c.17.45.26 1 .26 1.64v.49h-5.64v-1.03h4.28c0-.37-.07-.69-.22-.97a1.67 1.67 0 0 0-1.55-.91c-.39 0-.73.1-1.02.28a2.06 2.06 0 0 0-.89 1.73v.8c0 .48.08.88.25 1.21.16.33.4.59.7.76.3.18.66.26 1.06.26.26 0 .5-.03.71-.1a1.48 1.48 0 0 0 .92-.9l1.31.23a2.58 2.58 0 0 1-1.57 1.68c-.4.15-.87.23-1.38.23Zm5.95-4.35v4.21H49.5V8.4h1.32v1.16h.1c.15-.37.41-.67.76-.9.35-.23.79-.34 1.32-.34.49 0 .9.1 1.27.3.37.2.65.5.85.9.2.4.3.88.3 1.47v4.51h-1.38v-4.34c0-.52-.14-.92-.4-1.2-.27-.3-.64-.45-1.1-.45-.33 0-.61.07-.86.21a1.5 1.5 0 0 0-.59.6c-.14.27-.21.6-.21.97Zm11.7-1.15-1.25.22a1.48 1.48 0 0 0-.25-.46 1.23 1.23 0 0 0-.45-.35c-.2-.1-.43-.14-.72-.14-.39 0-.71.09-.98.26-.26.18-.39.4-.39.67 0 .24.09.43.27.58.17.14.45.26.85.35l1.12.26c.65.15 1.14.38 1.46.7.32.31.48.72.48 1.22 0 .43-.12.8-.37 1.14-.24.33-.58.58-1.02.77-.43.19-.94.28-1.5.28a3.4 3.4 0 0 1-1.95-.5 2.2 2.2 0 0 1-.93-1.46l1.34-.2c.08.35.25.6.51.79.26.17.6.26 1.01.26.45 0 .82-.1 1.09-.28.27-.2.4-.42.4-.7 0-.22-.08-.4-.25-.56a1.63 1.63 0 0 0-.75-.34l-1.2-.26a2.88 2.88 0 0 1-1.47-.72 1.74 1.74 0 0 1-.47-1.25c0-.42.12-.79.35-1.1.24-.32.56-.56.97-.74a3.7 3.7 0 0 1 1.42-.26c.77 0 1.37.16 1.8.5.45.32.74.77.88 1.32Zm4.71 5.5a3.04 3.04 0 0 1-2.97-1.72 4.3 4.3 0 0 1-.4-1.92c0-.73.14-1.37.4-1.92.28-.55.66-.99 1.15-1.3a3.47 3.47 0 0 1 2.89-.27 2.82 2.82 0 0 1 1.72 1.73c.17.45.26 1 .26 1.64v.49H64.7v-1.03h4.28c0-.37-.07-.69-.22-.97a1.68 1.68 0 0 0-1.55-.91c-.4 0-.73.1-1.02.28a2.03 2.03 0 0 0-.89 1.73v.8c0 .48.08.88.24 1.21.17.33.4.59.71.76.3.18.66.26 1.06.26.26 0 .5-.03.71-.1a1.48 1.48 0 0 0 .92-.9l1.3.23a2.54 2.54 0 0 1-1.57 1.68c-.4.15-.86.23-1.38.23Z"/><path fill="#fff" d="M73.72 15.5V6.05h3.94c.7 0 1.3.1 1.78.3.48.2.84.48 1.08.84.24.36.36.77.36 1.25a1.99 1.99 0 0 1-.85 1.66c-.26.18-.57.31-.92.39v.09c.38.02.74.12 1.06.3a2.28 2.28 0 0 1 1.08 1.97 2.45 2.45 0 0 1-1.51 2.3 4.2 4.2 0 0 1-1.78.35h-4.24ZM76 13.66h1.41c.5 0 .86-.1 1.1-.28a.94.94 0 0 0 .35-.79c0-.24-.05-.45-.17-.63a1.1 1.1 0 0 0-.48-.4c-.21-.1-.46-.15-.76-.15H76v2.25Zm0-3.73h1.27c.24 0 .47-.04.66-.12a.96.96 0 0 0 .62-.93.9.9 0 0 0-.34-.75 1.4 1.4 0 0 0-.9-.27H76v2.07Zm5.88-3.88h2.55l2 3.95h.08l2-3.95h2.55l-3.45 6.3v3.15h-2.27v-3.16l-3.46-6.3ZM96.36 9.9v1.74h-4.38V9.9h4.38ZM106 6.05v9.45h-1.94l-3.76-5.46h-.06v5.46h-2.29V6.05h1.97l3.72 5.44h.08V6.05H106Zm10.02 3.42h-2.31c-.03-.24-.1-.45-.2-.64a1.57 1.57 0 0 0-.93-.8 2.14 2.14 0 0 0-.7-.11c-.46 0-.86.11-1.2.34-.32.22-.57.55-.75.97-.18.43-.27.94-.27 1.54 0 .63.1 1.16.27 1.58.18.42.44.74.76.96.33.21.72.32 1.17.32.25 0 .48-.04.69-.1a1.55 1.55 0 0 0 .94-.74c.1-.18.18-.39.22-.61l2.3.01a3.95 3.95 0 0 1-2.47 3.14c-.5.2-1.08.3-1.73.3-.85 0-1.62-.19-2.3-.56a4.06 4.06 0 0 1-1.6-1.66c-.38-.72-.58-1.6-.58-2.64s.2-1.92.6-2.64c.4-.73.93-1.28 1.6-1.65a5.05 5.05 0 0 1 3.86-.32 3.55 3.55 0 0 1 2.18 1.8c.25.44.4.94.45 1.51Zm5.84.43v1.74h-4.37V9.9h4.37Zm1.46 4.03v-1.78l3.88-6.1h1.58v2.41h-.92l-2.27 3.6v.07h5.61v1.8h-7.88Zm4.57 1.57v-2.11l.04-.78V6.05h2.14v9.45h-2.18Zm5.7.13c-.32 0-.6-.11-.84-.35a1.14 1.14 0 0 1-.35-.85 1.17 1.17 0 0 1 1.2-1.19c.31 0 .59.12.83.36a1.13 1.13 0 0 1 .2 1.44c-.12.18-.26.32-.44.43-.18.11-.38.16-.6.16Zm6.19.1a3.8 3.8 0 0 1-2.14-.59 3.8 3.8 0 0 1-1.38-1.69 6.58 6.58 0 0 1-.48-2.66c0-1.04.17-1.92.49-2.64.32-.73.78-1.28 1.37-1.66a3.9 3.9 0 0 1 2.14-.57c.82 0 1.53.19 2.13.57.6.38 1.06.93 1.38 1.66.33.72.49 1.6.48 2.64 0 1.04-.16 1.93-.48 2.66-.32.74-.78 1.3-1.38 1.7-.6.39-1.3.58-2.13.58Zm0-1.87c.49 0 .89-.25 1.2-.75.3-.5.45-1.28.44-2.32 0-.69-.06-1.25-.2-1.7a2.14 2.14 0 0 0-.58-.99 1.26 1.26 0 0 0-.86-.33c-.5 0-.89.25-1.19.75-.3.49-.45 1.24-.46 2.27 0 .69.07 1.26.2 1.72.14.45.33.8.58 1.02.25.22.54.33.87.33Z"/></g></g><rect width="148.8" height="19.8" x=".6" y=".6" stroke="url(#e)" stroke-opacity=".88" stroke-width="1.2" rx="4.4"/><defs><clipPath id="a"><rect width="150" height="21" fill="#fff" rx="5"/></clipPath><clipPath id="c"><path fill="#fff" d="M5 2.5h16v16H5z"/></clipPath><filter id="b" width="27.2" height="27.2" x="-.6" y="-3.1" color-interpolation-filters="sRGB" filterUnits="userSpaceOnUse"><feFlood flood-opacity="0" result="BackgroundImageFix"/><feColorMatrix in="SourceAlpha" result="hardAlpha" values="0 0 0 0 0 0 0 0 0 0 0 0 0 0 0 0 0 0 127 0"/><feOffset/><feGaussianBlur stdDeviation="2.8"/><feComposite in2="hardAlpha" operator="out"/><feColorMatrix values="0 0 0 0 0 0 0 0 0 0 0 0 0 0 0 0 0 0 0.25 0"/><feBlend in2="BackgroundImageFix" result="effect1_dropShadow_2011_35"/><feBlend in="SourceGraphic" in2="effect1_dropShadow_2011_35" result="shape"/></filter><filter id="d" width="133.43" height="27.43" x="17.29" y="-3.21" color-interpolation-filters="sRGB" filterUnits="userSpaceOnUse"><feFlood flood-opacity="0" result="BackgroundImageFix"/><feColorMatrix in="SourceAlpha" result="hardAlpha" values="0 0 0 0 0 0 0 0 0 0 0 0 0 0 0 0 0 0 127 0"/><feOffset/><feGaussianBlur stdDeviation="2.86"/><feComposite in2="hardAlpha" operator="out"/><feColorMatrix values="0 0 0 0 0 0 0 0 0 0 0 0 0 0 0 0 0 0 0.25 0"/><feBlend in2="BackgroundImageFix" result="effect1_dropShadow_2011_35"/><feBlend in="SourceGraphic" in2="effect1_dropShadow_2011_35" result="shape"/></filter><linearGradient id="e" x1="0" x2="150" y1="10.5" y2="10.5" gradientUnits="userSpaceOnUse"><stop stop-color="#A5B2AC"/><stop offset="1" stop-color="#ECF0ED"/></linearGradient></defs></svg>
